packages/core/assets/Icons/arrow_circle_down_outlined.svg

<svg viewBox="0 0 20 20" fill="none" xmlns="http://www.w3.org/2000/svg">
<path d="M9.16663 10.1667L8.41663 9.41669C8.26385 9.26391 8.0694 9.18752 7.83329 9.18752C7.59718 9.18752 7.40274 9.26391 7.24996 9.41669C7.09718 9.56946 7.02079 9.76391 7.02079 10C7.02079 10.2361 7.09718 10.4306 7.24996 10.5834L9.41663 12.75C9.58329 12.9167 9.77774 13 9.99996 13C10.2222 13 10.4166 12.9167 10.5833 12.75L12.75 10.5834C12.9027 10.4306 12.9791 10.2361 12.9791 10C12.9791 9.76391 12.9027 9.56946 12.75 9.41669C12.5972 9.26391 12.4027 9.18752 12.1666 9.18752C11.9305 9.18752 11.7361 9.26391 11.5833 9.41669L10.8333 10.1667V7.50002C10.8333 7.26391 10.7534 7.06599 10.5937 6.90627C10.434 6.74655 10.2361 6.66669 9.99996 6.66669C9.76385 6.66669 9.56593 6.74655 9.40621 6.90627C9.24649 7.06599 9.16663 7.26391 9.16663 7.50002V10.1667ZM9.99996 18.3334C8.84718 18.3334 7.76385 18.1146 6.74996 17.6771C5.73607 17.2396 4.85413 16.6459 4.10413 15.8959C3.35413 15.1459 2.76038 14.2639 2.32288 13.25C1.88538 12.2361 1.66663 11.1528 1.66663 10C1.66663 8.84724 1.88538 7.76391 2.32288 6.75002C2.76038 5.73613 3.35413 4.85419 4.10413 4.10419C4.85413 3.35419 5.73607 2.76044 6.74996 2.32294C7.76385 1.88544 8.84718 1.66669 9.99996 1.66669C11.1527 1.66669 12.2361 1.88544 13.25 2.32294C14.2638 2.76044 15.1458 3.35419 15.8958 4.10419C16.6458 4.85419 17.2395 5.73613 17.677 6.75002C18.1145 7.76391 18.3333 8.84724 18.3333 10C18.3333 11.1528 18.1145 12.2361 17.677 13.25C17.2395 14.2639 16.6458 15.1459 15.8958 15.8959C15.1458 16.6459 14.2638 17.2396 13.25 17.6771C12.2361 18.1146 11.1527 18.3334 9.99996 18.3334ZM9.99996 16.6667C11.8611 16.6667 13.4375 16.0209 14.7291 14.7292C16.0208 13.4375 16.6666 11.8611 16.6666 10C16.6666 8.13891 16.0208 6.56252 14.7291 5.27085C13.4375 3.97919 11.8611 3.33335 9.99996 3.33335C8.13885 3.33335 6.56246 3.97919 5.27079 5.27085C3.97913 6.56252 3.33329 8.13891 3.33329 10C3.33329 11.8611 3.97913 13.4375 5.27079 14.7292C6.56246 16.0209 8.13885 16.6667 9.99996 16.6667Z" fill="currentColor"/>
</svg>

<svg xmlns="http://www.w3.org/2000/svg" width="20" height="20" fill="none" viewBox="0 0 20 20">
  <path fill="#201F1F" d="m9.167 10.167-.75-.75a.79.79 0 0 0-.584-.23.79.79 0 0 0-.583.23.79.79 0 0 0-.23.583c0 .236.077.43.23.583l2.167 2.167A.8.8 0 0 0 10 13a.8.8 0 0 0 .583-.25l2.167-2.167a.79.79 0 0 0 .23-.583.79.79 0 0 0-.23-.583.79.79 0 0 0-.583-.23.79.79 0 0 0-.584.23l-.75.75V7.5a.806.806 0 0 0-.24-.594.806.806 0 0 0-.593-.24.806.806 0 0 0-.594.24.806.806 0 0 0-.24.594v2.667ZM10 18.333a8.115 8.115 0 0 1-3.25-.656 8.415 8.415 0 0 1-2.646-1.781 8.416 8.416 0 0 1-1.781-2.646A8.115 8.115 0 0 1 1.667 10c0-1.153.218-2.236.656-3.25a8.415 8.415 0 0 1 1.781-2.646A8.415 8.415 0 0 1 6.75 2.323 8.115 8.115 0 0 1 10 1.667c1.153 0 2.236.218 3.25.656a8.416 8.416 0 0 1 2.646 1.781 8.415 8.415 0 0 1 1.781 2.646 8.115 8.115 0 0 1 .656 3.25 8.115 8.115 0 0 1-.656 3.25 8.416 8.416 0 0 1-1.781 2.646 8.416 8.416 0 0 1-2.646 1.781 8.115 8.115 0 0 1-3.25.656Zm0-1.666c1.861 0 3.438-.646 4.73-1.938 1.29-1.291 1.937-2.868 1.937-4.729 0-1.861-.646-3.437-1.938-4.73C13.438 3.98 11.861 3.334 10 3.334c-1.861 0-3.438.646-4.73 1.938C3.98 6.563 3.334 8.139 3.334 10c0 1.861.646 3.438 1.938 4.73 1.291 1.29 2.868 1.937 4.729 1.937Z"/>
</svg>
